www/assets/icons/notifications_active.svg

<svg width="24" height="24" viewBox="0 0 24 24" xmlns="http://www.w3.org/2000/svg" fill='currentColor'><path d="M7.58003 3.83L6.15003 2.4C3.75003 4.23 2.17003 7.05 2.03003 10.25H4.03003C4.18003 7.6 5.54003 5.28 7.58003 3.83ZM19.97 10.25H21.97C21.82 7.05 20.24 4.23 17.85 2.4L16.43 3.83C18.45 5.28 19.82 7.6 19.97 10.25ZM18 10.75C18 7.68 16.36 5.11 13.5 4.43V3.75C13.5 2.92 12.83 2.25 12 2.25C11.17 2.25 10.5 2.92 10.5 3.75V4.43C7.63003 5.11 6.00003 7.67 6.00003 10.75V15.75L4.00003 17.75V18.75H20V17.75L18 15.75V10.75ZM12 21.75C12.14 21.75 12.27 21.74 12.4 21.71C13.05 21.57 13.58 21.13 13.84 20.53C13.94 20.29 13.99 20.03 13.99 19.75H9.99003C10 20.85 10.89 21.75 12 21.75Z"/></svg>

<svg xmlns="http://www.w3.org/2000/svg" width="24" height="24" viewBox="0 0 24 24" fill='currentColor'><path d="M7.58 3.83 6.15 2.4c-2.4 1.83-3.98 4.65-4.12 7.85h2a8.45 8.45 0 0 1 3.55-6.42m12.39 6.42h2c-.15-3.2-1.73-6.02-4.12-7.85l-1.42 1.43a8.5 8.5 0 0 1 3.54 6.42m-1.97.5c0-3.07-1.64-5.64-4.5-6.32v-.68c0-.83-.67-1.5-1.5-1.5s-1.5.67-1.5 1.5v.68C7.63 5.11 6 7.67 6 10.75v5l-2 2v1h16v-1l-2-2zm-6 11c.14 0 .27-.01.4-.04.65-.14 1.18-.58 1.44-1.18q.15-.36.15-.78h-4c.01 1.1.9 2 2.01 2"/></svg>
